T: Jenn's
M: 9/8
L: 1/8
K: Dmaj
|:AB=c AB=c A2G|E2E GEA GED|ABc d2e f2d|
ged =cAG A3|dAG FAD dAG|FdF FEF G2E|
ABc d2e=fed|1cBA GAE D3:|2cBA GFE D3||
|:ABc d2e f2d|ged c2A G2E|ABc d2e f2d|
ged =cAG A3|ABG AFG EFD|E2EED EEFG|
ABc d2e=fed|1cBA GAE D3:|2cBA GFE D3||
